static/img/in-field/switches-oem.svg

<svg fill="none" height="239" viewBox="0 0 1088 239" width="1088" xmlns="http://www.w3.org/2000/svg"><path d="m.5 0h1087v239h-1087z" fill="#e5e5e5"/><path d="m201 20h686v199h-686z" fill="#cbcbcb"/><path d="m202 21h684v65h-684z" fill="#fff"/><path d="m220.159 62.5v-15.7051h1.826v14.0508h6.929v1.6543zm13.195 0h-1.784v-11.7734h1.784zm-1.934-14.9639c0-.4082.1-.7054.301-.8916.2-.1933.451-.29.752-.29.286 0 .533.0967.741.29.208.1934.311.4906.311.8916 0 .4011-.103.7019-.311.9024-.208.1933-.455.29-.741.29-.301 0-.552-.0967-.752-.29-.201-.2005-.301-.5013-.301-.9024zm13.559 11.752c0 1.0957-.408 1.9407-1.224 2.5351-.817.5944-1.962.8916-3.438.8916-1.561 0-2.778-.247-3.652-.7412v-1.6543c.566.2865 1.171.5121 1.815.6768.652.1647 1.279.2471 1.88.2471.931 0 1.647-.1468 2.149-.4405.501-.3007.752-.7555.752-1.3642 0-.4584-.201-.8487-.602-1.1709-.394-.3294-1.167-.7162-2.32-1.1602-1.096-.4082-1.876-.7627-2.342-1.0635-.458-.3079-.802-.6552-1.031-1.0419-.222-.3868-.333-.8487-.333-1.3858 0-.9596.39-1.7152 1.171-2.2666.78-.5586 1.851-.8379 3.212-.8379 1.267 0 2.506.2578 3.716.7735l-.633 1.4502c-1.182-.487-2.253-.7305-3.212-.7305-.845 0-1.483.1325-1.912.3974-.43.265-.645.6303-.645 1.0957 0 .3152.079.5837.236.8057.165.222.427.4333.785.6338s1.045.4906 2.062.8701c1.397.5085 2.338 1.0205 2.825 1.5362.494.5156.741 1.1637.741 1.9443zm6.964 1.9551c.315 0 .62-.0215.913-.0645.294-.0501.527-.1002.699-.1504v1.3643c-.194.0931-.48.1683-.86.2256-.372.0644-.709.0966-1.009.0966-2.278 0-3.416-1.1995-3.416-3.5986v-7.0039h-1.687v-.8594l1.687-.7412.751-2.5137h1.032v2.7286h3.416v1.3857h-3.416v6.9287c0 .709.168 1.2533.505 1.6328.336.3796.798.5694 1.385.5694zm10.458 1.2568v-15.7051h1.827v15.7051zm9.929-1.2568c.315 0 .62-.0215.913-.0645.294-.0501.527-.1002.698-.1504v1.3643c-.193.0931-.479.1683-.859.2256-.372.0644-.709.0966-1.01.0966-2.277 0-3.416-1.1995-3.416-3.5986v-7.0039h-1.686v-.8594l1.686-.7412.752-2.5137h1.031v2.7286h3.416v1.3857h-3.416v6.9287c0 .709.169 1.2533.505 1.6328.337.3796.799.5694 1.386.5694zm9.198 1.4716c-1.74 0-3.115-.5299-4.125-1.5898-1.002-1.0599-1.504-2.5316-1.504-4.415 0-1.8978.466-3.4053 1.397-4.5225.938-1.1172 2.195-1.6758 3.77-1.6758 1.476 0 2.643.487 3.502 1.461.86.9668 1.289 2.2451 1.289 3.8349v1.1279h-8.11c.036 1.3822.383 2.4314 1.042 3.1475.666.7162 1.601 1.0742 2.804 1.0742 1.267 0 2.521-.2649 3.76-.7949v1.5898c-.631.2722-1.229.4655-1.794.5801-.559.1218-1.236.1826-2.031.1826zm-.483-10.7099c-.945 0-1.701.3079-2.267.9238-.558.6159-.888 1.4681-.988 2.5567h6.155c0-1.1244-.25-1.9838-.752-2.5782-.501-.6015-1.217-.9023-2.148-.9023zm23.12 10.4951v-7.6592c0-.9381-.2-1.64-.602-2.1054-.401-.4727-1.024-.709-1.869-.709-1.11 0-1.93.3187-2.46.956-.53.6374-.795 1.6185-.795 2.9434v6.5742h-1.783v-7.6592c0-.9381-.2-1.64-.601-2.1054-.401-.4727-1.028-.709-1.88-.709-1.117 0-1.937.3366-2.46 1.0097-.516.666-.774 1.7618-.774 3.2871v6.1768h-1.783v-11.7734h1.45l.29 1.6113h.086c.337-.5729.81-1.0205 1.418-1.3428.616-.3222 1.304-.4834 2.063-.4834 1.84 0 3.043.666 3.609 1.9981h.086c.351-.6159.86-1.1029 1.526-1.461.666-.358 1.425-.5371 2.277-.5371 1.332 0 2.327.3438 2.986 1.0313.666.6803.999 1.7724.999 3.2763v7.6807z" fill="#252a2e"/><rect fill="#ffcd10" height="32" rx="16" stroke="#beb8b8" stroke-width="2" width="64" x="799" y="37.5"/><path d="m859.5 53.5c0 6.9036-5.596 12.5-12.5 12.5s-12.5-5.5964-12.5-12.5 5.596-12.5 12.5-12.5 12.5 5.5964 12.5 12.5z" fill="#fff" stroke="#beb8b8"/><path d="m202 87h684v65h-684z" fill="#fff"/><path d="m220.159 128.5v-15.705h1.826v14.051h6.929v1.654zm13.195 0h-1.784v-11.773h1.784zm-1.934-14.964c0-.408.1-.705.301-.891.2-.194.451-.291.752-.291.286 0 .533.097.741.291.208.193.311.49.311.891s-.103.702-.311.902c-.208.194-.455.291-.741.291-.301 0-.552-.097-.752-.291-.201-.2-.301-.501-.301-.902zm13.559 11.752c0 1.096-.408 1.941-1.224 2.535-.817.595-1.962.892-3.438.892-1.561 0-2.778-.247-3.652-.741v-1.655c.566.287 1.171.512 1.815.677.652.165 1.279.247 1.88.247.931 0 1.647-.147 2.149-.44.501-.301.752-.756.752-1.365 0-.458-.201-.848-.602-1.17-.394-.33-1.167-.717-2.32-1.161-1.096-.408-1.876-.762-2.342-1.063-.458-.308-.802-.655-1.031-1.042-.222-.387-.333-.849-.333-1.386 0-.959.39-1.715 1.171-2.266.78-.559 1.851-.838 3.212-.838 1.267 0 2.506.258 3.716.773l-.633 1.45c-1.182-.487-2.253-.73-3.212-.73-.845 0-1.483.132-1.912.397-.43.265-.645.631-.645 1.096 0 .315.079.584.236.806.165.222.427.433.785.634.358.2 1.045.49 2.062.87 1.397.508 2.338 1.02 2.825 1.536.494.515.741 1.163.741 1.944zm6.964 1.955c.315 0 .62-.021.913-.064.294-.05.527-.101.699-.151v1.365c-.194.093-.48.168-.86.225-.372.065-.709.097-1.009.097-2.278 0-3.416-1.2-3.416-3.599v-7.004h-1.687v-.859l1.687-.741.751-2.514h1.032v2.729h3.416v1.385h-3.416v6.929c0 .709.168 1.253.505 1.633.336.379.798.569 1.385.569zm10.458 1.257v-15.705h1.827v15.705zm9.929-1.257c.315 0 .62-.021.913-.064.294-.05.527-.101.698-.151v1.365c-.193.093-.479.168-.859.225-.372.065-.709.097-1.01.097-2.277 0-3.416-1.2-3.416-3.599v-7.004h-1.686v-.859l1.686-.741.752-2.514h1.031v2.729h3.416v1.385h-3.416v6.929c0 .709.169 1.253.505 1.633.337.379.799.569 1.386.569zm9.198 1.472c-1.74 0-3.115-.53-4.125-1.59-1.002-1.06-1.504-2.532-1.504-4.415 0-1.898.466-3.405 1.397-4.522.938-1.118 2.195-1.676 3.77-1.676 1.476 0 2.643.487 3.502 1.461.86.966 1.289 2.245 1.289 3.835v1.128h-8.11c.036 1.382.383 2.431 1.042 3.147.666.716 1.601 1.074 2.804 1.074 1.267 0 2.521-.265 3.76-.795v1.59c-.631.272-1.229.466-1.794.58-.559.122-1.236.183-2.031.183zm-.483-10.71c-.945 0-1.701.308-2.267.924-.558.616-.888 1.468-.988 2.556h6.155c0-1.124-.25-1.983-.752-2.578-.501-.601-1.217-.902-2.148-.902zm23.12 10.495v-7.659c0-.938-.2-1.64-.602-2.106-.401-.472-1.024-.709-1.869-.709-1.11 0-1.93.319-2.46.956-.53.638-.795 1.619-.795 2.944v6.574h-1.783v-7.659c0-.938-.2-1.64-.601-2.106-.401-.472-1.028-.709-1.88-.709-1.117 0-1.937.337-2.46 1.01-.516.666-.774 1.762-.774 3.287v6.177h-1.783v-11.773h1.45l.29 1.611h.086c.337-.573.81-1.021 1.418-1.343.616-.322 1.304-.483 2.063-.483 1.84 0 3.043.666 3.609 1.998h.086c.351-.616.86-1.103 1.526-1.461s1.425-.537 2.277-.537c1.332 0 2.327.343 2.986 1.031.666.68.999 1.772.999 3.276v7.681z" fill="#252a2e"/><rect fill="#90939f" height="32" rx="16" transform="matrix(-1 0 0 1 863 103.5)" width="64"/><path d="m825 119.5c0-5.523-4.477-10-10-10s-10 4.477-10 10 4.477 10 10 10 10-4.477 10-10z" fill="#fff"/><path d="m202 153h684v65h-684z" fill="#fff"/><path d="m220.159 194.5v-15.705h1.826v14.051h6.929v1.654zm13.195 0h-1.784v-11.773h1.784zm-1.934-14.964c0-.408.1-.705.301-.891.2-.194.451-.291.752-.291.286 0 .533.097.741.291.208.193.311.49.311.891s-.103.702-.311.902c-.208.194-.455.291-.741.291-.301 0-.552-.097-.752-.291-.201-.2-.301-.501-.301-.902zm13.559 11.752c0 1.096-.408 1.941-1.224 2.535-.817.595-1.962.892-3.438.892-1.561 0-2.778-.247-3.652-.741v-1.655c.566.287 1.171.512 1.815.677.652.165 1.279.247 1.88.247.931 0 1.647-.147 2.149-.44.501-.301.752-.756.752-1.365 0-.458-.201-.848-.602-1.17-.394-.33-1.167-.717-2.32-1.161-1.096-.408-1.876-.762-2.342-1.063-.458-.308-.802-.655-1.031-1.042-.222-.387-.333-.849-.333-1.386 0-.959.39-1.715 1.171-2.266.78-.559 1.851-.838 3.212-.838 1.267 0 2.506.258 3.716.773l-.633 1.45c-1.182-.487-2.253-.73-3.212-.73-.845 0-1.483.132-1.912.397-.43.265-.645.631-.645 1.096 0 .315.079.584.236.806.165.222.427.433.785.634.358.2 1.045.49 2.062.87 1.397.508 2.338 1.02 2.825 1.536.494.515.741 1.163.741 1.944zm6.964 1.955c.315 0 .62-.021.913-.064.294-.05.527-.101.699-.151v1.365c-.194.093-.48.168-.86.225-.372.065-.709.097-1.009.097-2.278 0-3.416-1.2-3.416-3.599v-7.004h-1.687v-.859l1.687-.741.751-2.514h1.032v2.729h3.416v1.385h-3.416v6.929c0 .709.168 1.253.505 1.633.336.379.798.569 1.385.569zm10.458 1.257v-15.705h1.827v15.705zm9.929-1.257c.315 0 .62-.021.913-.064.294-.05.527-.101.698-.151v1.365c-.193.093-.479.168-.859.225-.372.065-.709.097-1.01.097-2.277 0-3.416-1.2-3.416-3.599v-7.004h-1.686v-.859l1.686-.741.752-2.514h1.031v2.729h3.416v1.385h-3.416v6.929c0 .709.169 1.253.505 1.633.337.379.799.569 1.386.569zm9.198 1.472c-1.74 0-3.115-.53-4.125-1.59-1.002-1.06-1.504-2.532-1.504-4.415 0-1.898.466-3.405 1.397-4.522.938-1.118 2.195-1.676 3.77-1.676 1.476 0 2.643.487 3.502 1.461.86.966 1.289 2.245 1.289 3.835v1.128h-8.11c.036 1.382.383 2.431 1.042 3.147.666.716 1.601 1.074 2.804 1.074 1.267 0 2.521-.265 3.76-.795v1.59c-.631.272-1.229.466-1.794.58-.559.122-1.236.183-2.031.183zm-.483-10.71c-.945 0-1.701.308-2.267.924-.558.616-.888 1.468-.988 2.556h6.155c0-1.124-.25-1.983-.752-2.578-.501-.601-1.217-.902-2.148-.902zm23.12 10.495v-7.659c0-.938-.2-1.64-.602-2.106-.401-.472-1.024-.709-1.869-.709-1.11 0-1.93.319-2.46.956-.53.638-.795 1.619-.795 2.944v6.574h-1.783v-7.659c0-.938-.2-1.64-.601-2.106-.401-.472-1.028-.709-1.88-.709-1.117 0-1.937.337-2.46 1.01-.516.666-.774 1.762-.774 3.287v6.177h-1.783v-11.773h1.45l.29 1.611h.086c.337-.573.81-1.021 1.418-1.343.616-.322 1.304-.483 2.063-.483 1.84 0 3.043.666 3.609 1.998h.086c.351-.616.86-1.103 1.526-1.461s1.425-.537 2.277-.537c1.332 0 2.327.343 2.986 1.031.666.68.999 1.772.999 3.276v7.681z" fill="#252a2e"/><g stroke="#beb8b8"><rect fill="#ffcd10" height="32" rx="16" stroke-width="2" width="64" x="799" y="169.5"/><path d="m859.5 185.5c0 6.904-5.596 12.5-12.5 12.5s-12.5-5.596-12.5-12.5 5.596-12.5 12.5-12.5 12.5 5.596 12.5 12.5z" fill="#fff"/></g></svg>

<svg width="1088" height="239" viewBox="0 0 1088 239" fill="none" xmlns="http://www.w3.org/2000/svg"><rect width="1087" height="239" transform="translate(0.5)" fill="#E5E5E5"/><rect width="686" height="199" transform="translate(201 20)" fill="#CBCBCB"/><rect width="684" height="65" transform="translate(202 21)" fill="#fff"/><path d="M220.159 62.5V46.7949H221.985V60.8457H228.914V62.5H220.159ZM233.354 62.5H231.57V50.7266H233.354V62.5ZM231.42 47.5361C231.42 47.1279 231.52 46.8307 231.721 46.6445C231.921 46.4512 232.172 46.3545 232.473 46.3545C232.759 46.3545 233.006 46.4512 233.214 46.6445C233.422 46.8379 233.525 47.1351 233.525 47.5361C233.525 47.9372 233.422 48.238 233.214 48.4385C233.006 48.6318 232.759 48.7285 232.473 48.7285C232.172 48.7285 231.921 48.6318 231.721 48.4385C231.52 48.238 231.42 47.9372 231.42 47.5361ZM244.979 59.2881C244.979 60.3838 244.571 61.2288 243.755 61.8232C242.938 62.4176 241.793 62.7148 240.317 62.7148C238.756 62.7148 237.539 62.4678 236.665 61.9736V60.3193C237.231 60.6058 237.836 60.8314 238.48 60.9961C239.132 61.1608 239.759 61.2432 240.36 61.2432C241.291 61.2432 242.007 61.0964 242.509 60.8027C243.01 60.502 243.261 60.0472 243.261 59.4385C243.261 58.9801 243.06 58.5898 242.659 58.2676C242.265 57.9382 241.492 57.5514 240.339 57.1074C239.243 56.6992 238.463 56.3447 237.997 56.0439C237.539 55.736 237.195 55.3887 236.966 55.002C236.744 54.6152 236.633 54.1533 236.633 53.6162C236.633 52.6566 237.023 51.901 237.804 51.3496C238.584 50.791 239.655 50.5117 241.016 50.5117C242.283 50.5117 243.522 50.7695 244.732 51.2852L244.099 52.7354C242.917 52.2484 241.846 52.0049 240.887 52.0049C240.042 52.0049 239.404 52.1374 238.975 52.4023C238.545 52.6673 238.33 53.0326 238.33 53.498C238.33 53.8132 238.409 54.0817 238.566 54.3037C238.731 54.5257 238.993 54.737 239.351 54.9375C239.709 55.138 240.396 55.4281 241.413 55.8076C242.81 56.3161 243.751 56.8281 244.238 57.3438C244.732 57.8594 244.979 58.5075 244.979 59.2881ZM251.943 61.2432C252.258 61.2432 252.563 61.2217 252.856 61.1787C253.15 61.1286 253.383 61.0785 253.555 61.0283V62.3926C253.361 62.4857 253.075 62.5609 252.695 62.6182C252.323 62.6826 251.986 62.7148 251.686 62.7148C249.408 62.7148 248.27 61.5153 248.27 59.1162V52.1123H246.583V51.2529L248.27 50.5117L249.021 47.998H250.053V50.7266H253.469V52.1123H250.053V59.041C250.053 59.75 250.221 60.2943 250.558 60.6738C250.894 61.0534 251.356 61.2432 251.943 61.2432ZM262.401 62.5V46.7949H264.228V62.5H262.401ZM272.33 61.2432C272.645 61.2432 272.95 61.2217 273.243 61.1787C273.537 61.1286 273.77 61.0785 273.941 61.0283V62.3926C273.748 62.4857 273.462 62.5609 273.082 62.6182C272.71 62.6826 272.373 62.7148 272.072 62.7148C269.795 62.7148 268.656 61.5153 268.656 59.1162V52.1123H266.97V51.2529L268.656 50.5117L269.408 47.998H270.439V50.7266H273.855V52.1123H270.439V59.041C270.439 59.75 270.608 60.2943 270.944 60.6738C271.281 61.0534 271.743 61.2432 272.33 61.2432ZM281.528 62.7148C279.788 62.7148 278.413 62.1849 277.403 61.125C276.401 60.0651 275.899 58.5934 275.899 56.71C275.899 54.8122 276.365 53.3047 277.296 52.1875C278.234 51.0703 279.491 50.5117 281.066 50.5117C282.542 50.5117 283.709 50.9987 284.568 51.9727C285.428 52.9395 285.857 54.2178 285.857 55.8076V56.9355H277.747C277.783 58.3177 278.13 59.3669 278.789 60.083C279.455 60.7992 280.39 61.1572 281.593 61.1572C282.86 61.1572 284.114 60.8923 285.353 60.3623V61.9521C284.722 62.2243 284.124 62.4176 283.559 62.5322C283 62.654 282.323 62.7148 281.528 62.7148ZM281.045 52.0049C280.1 52.0049 279.344 52.3128 278.778 52.9287C278.22 53.5446 277.89 54.3968 277.79 55.4854H283.945C283.945 54.361 283.695 53.5016 283.193 52.9072C282.692 52.3057 281.976 52.0049 281.045 52.0049ZM304.165 62.5V54.8408C304.165 53.9027 303.965 53.2008 303.563 52.7354C303.162 52.2627 302.539 52.0264 301.694 52.0264C300.584 52.0264 299.764 52.3451 299.234 52.9824C298.704 53.6198 298.439 54.6009 298.439 55.9258V62.5H296.656V54.8408C296.656 53.9027 296.456 53.2008 296.055 52.7354C295.654 52.2627 295.027 52.0264 294.175 52.0264C293.058 52.0264 292.238 52.363 291.715 53.0361C291.199 53.7021 290.941 54.7979 290.941 56.3232V62.5H289.158V50.7266H290.608L290.898 52.3379H290.984C291.321 51.765 291.794 51.3174 292.402 50.9951C293.018 50.6729 293.706 50.5117 294.465 50.5117C296.305 50.5117 297.508 51.1777 298.074 52.5098H298.16C298.511 51.8939 299.02 51.4069 299.686 51.0488C300.352 50.6908 301.111 50.5117 301.963 50.5117C303.295 50.5117 304.29 50.8555 304.949 51.543C305.615 52.2233 305.948 53.3154 305.948 54.8193V62.5H304.165Z" fill="#252A2E"/><rect x="799" y="37.5" width="64" height="32" rx="16" fill="#FFCD10" stroke="#BEB8B8" stroke-width="2"/><path d="M859.5 53.5C859.5 60.4036 853.904 66 847 66C840.096 66 834.5 60.4036 834.5 53.5C834.5 46.5964 840.096 41 847 41C853.904 41 859.5 46.5964 859.5 53.5Z" fill="#fff" stroke="#BEB8B8"/><rect width="684" height="65" transform="translate(202 87)" fill="#fff"/><path d="M220.159 128.5V112.795H221.985V126.846H228.914V128.5H220.159ZM233.354 128.5H231.57V116.727H233.354V128.5ZM231.42 113.536C231.42 113.128 231.52 112.831 231.721 112.645C231.921 112.451 232.172 112.354 232.473 112.354C232.759 112.354 233.006 112.451 233.214 112.645C233.422 112.838 233.525 113.135 233.525 113.536C233.525 113.937 233.422 114.238 233.214 114.438C233.006 114.632 232.759 114.729 232.473 114.729C232.172 114.729 231.921 114.632 231.721 114.438C231.52 114.238 231.42 113.937 231.42 113.536ZM244.979 125.288C244.979 126.384 244.571 127.229 243.755 127.823C242.938 128.418 241.793 128.715 240.317 128.715C238.756 128.715 237.539 128.468 236.665 127.974V126.319C237.231 126.606 237.836 126.831 238.48 126.996C239.132 127.161 239.759 127.243 240.36 127.243C241.291 127.243 242.007 127.096 242.509 126.803C243.01 126.502 243.261 126.047 243.261 125.438C243.261 124.98 243.06 124.59 242.659 124.268C242.265 123.938 241.492 123.551 240.339 123.107C239.243 122.699 238.463 122.345 237.997 122.044C237.539 121.736 237.195 121.389 236.966 121.002C236.744 120.615 236.633 120.153 236.633 119.616C236.633 118.657 237.023 117.901 237.804 117.35C238.584 116.791 239.655 116.512 241.016 116.512C242.283 116.512 243.522 116.77 244.732 117.285L244.099 118.735C242.917 118.248 241.846 118.005 240.887 118.005C240.042 118.005 239.404 118.137 238.975 118.402C238.545 118.667 238.33 119.033 238.33 119.498C238.33 119.813 238.409 120.082 238.566 120.304C238.731 120.526 238.993 120.737 239.351 120.938C239.709 121.138 240.396 121.428 241.413 121.808C242.81 122.316 243.751 122.828 244.238 123.344C244.732 123.859 244.979 124.507 244.979 125.288ZM251.943 127.243C252.258 127.243 252.563 127.222 252.856 127.179C253.15 127.129 253.383 127.078 253.555 127.028V128.393C253.361 128.486 253.075 128.561 252.695 128.618C252.323 128.683 251.986 128.715 251.686 128.715C249.408 128.715 248.27 127.515 248.27 125.116V118.112H246.583V117.253L248.27 116.512L249.021 113.998H250.053V116.727H253.469V118.112H250.053V125.041C250.053 125.75 250.221 126.294 250.558 126.674C250.894 127.053 251.356 127.243 251.943 127.243ZM262.401 128.5V112.795H264.228V128.5H262.401ZM272.33 127.243C272.645 127.243 272.95 127.222 273.243 127.179C273.537 127.129 273.77 127.078 273.941 127.028V128.393C273.748 128.486 273.462 128.561 273.082 128.618C272.71 128.683 272.373 128.715 272.072 128.715C269.795 128.715 268.656 127.515 268.656 125.116V118.112H266.97V117.253L268.656 116.512L269.408 113.998H270.439V116.727H273.855V118.112H270.439V125.041C270.439 125.75 270.608 126.294 270.944 126.674C271.281 127.053 271.743 127.243 272.33 127.243ZM281.528 128.715C279.788 128.715 278.413 128.185 277.403 127.125C276.401 126.065 275.899 124.593 275.899 122.71C275.899 120.812 276.365 119.305 277.296 118.188C278.234 117.07 279.491 116.512 281.066 116.512C282.542 116.512 283.709 116.999 284.568 117.973C285.428 118.939 285.857 120.218 285.857 121.808V122.936H277.747C277.783 124.318 278.13 125.367 278.789 126.083C279.455 126.799 280.39 127.157 281.593 127.157C282.86 127.157 284.114 126.892 285.353 126.362V127.952C284.722 128.224 284.124 128.418 283.559 128.532C283 128.654 282.323 128.715 281.528 128.715ZM281.045 118.005C280.1 118.005 279.344 118.313 278.778 118.929C278.22 119.545 277.89 120.397 277.79 121.485H283.945C283.945 120.361 283.695 119.502 283.193 118.907C282.692 118.306 281.976 118.005 281.045 118.005ZM304.165 128.5V120.841C304.165 119.903 303.965 119.201 303.563 118.735C303.162 118.263 302.539 118.026 301.694 118.026C300.584 118.026 299.764 118.345 299.234 118.982C298.704 119.62 298.439 120.601 298.439 121.926V128.5H296.656V120.841C296.656 119.903 296.456 119.201 296.055 118.735C295.654 118.263 295.027 118.026 294.175 118.026C293.058 118.026 292.238 118.363 291.715 119.036C291.199 119.702 290.941 120.798 290.941 122.323V128.5H289.158V116.727H290.608L290.898 118.338H290.984C291.321 117.765 291.794 117.317 292.402 116.995C293.018 116.673 293.706 116.512 294.465 116.512C296.305 116.512 297.508 117.178 298.074 118.51H298.16C298.511 117.894 299.02 117.407 299.686 117.049C300.352 116.691 301.111 116.512 301.963 116.512C303.295 116.512 304.29 116.855 304.949 117.543C305.615 118.223 305.948 119.315 305.948 120.819V128.5H304.165Z" fill="#252A2E"/><rect width="64" height="32" rx="16" transform="matrix(-1 0 0 1 863 103.5)" fill="#90939F"/><path d="M825 119.5C825 113.977 820.523 109.5 815 109.5C809.477 109.5 805 113.977 805 119.5C805 125.023 809.477 129.5 815 129.5C820.523 129.5 825 125.023 825 119.5Z" fill="#fff"/><rect width="684" height="65" transform="translate(202 153)" fill="#fff"/><path d="M220.159 194.5V178.795H221.985V192.846H228.914V194.5H220.159ZM233.354 194.5H231.57V182.727H233.354V194.5ZM231.42 179.536C231.42 179.128 231.52 178.831 231.721 178.645C231.921 178.451 232.172 178.354 232.473 178.354C232.759 178.354 233.006 178.451 233.214 178.645C233.422 178.838 233.525 179.135 233.525 179.536C233.525 179.937 233.422 180.238 233.214 180.438C233.006 180.632 232.759 180.729 232.473 180.729C232.172 180.729 231.921 180.632 231.721 180.438C231.52 180.238 231.42 179.937 231.42 179.536ZM244.979 191.288C244.979 192.384 244.571 193.229 243.755 193.823C242.938 194.418 241.793 194.715 240.317 194.715C238.756 194.715 237.539 194.468 236.665 193.974V192.319C237.231 192.606 237.836 192.831 238.48 192.996C239.132 193.161 239.759 193.243 240.36 193.243C241.291 193.243 242.007 193.096 242.509 192.803C243.01 192.502 243.261 192.047 243.261 191.438C243.261 190.98 243.06 190.59 242.659 190.268C242.265 189.938 241.492 189.551 240.339 189.107C239.243 188.699 238.463 188.345 237.997 188.044C237.539 187.736 237.195 187.389 236.966 187.002C236.744 186.615 236.633 186.153 236.633 185.616C236.633 184.657 237.023 183.901 237.804 183.35C238.584 182.791 239.655 182.512 241.016 182.512C242.283 182.512 243.522 182.77 244.732 183.285L244.099 184.735C242.917 184.248 241.846 184.005 240.887 184.005C240.042 184.005 239.404 184.137 238.975 184.402C238.545 184.667 238.33 185.033 238.33 185.498C238.33 185.813 238.409 186.082 238.566 186.304C238.731 186.526 238.993 186.737 239.351 186.938C239.709 187.138 240.396 187.428 241.413 187.808C242.81 188.316 243.751 188.828 244.238 189.344C244.732 189.859 244.979 190.507 244.979 191.288ZM251.943 193.243C252.258 193.243 252.563 193.222 252.856 193.179C253.15 193.129 253.383 193.078 253.555 193.028V194.393C253.361 194.486 253.075 194.561 252.695 194.618C252.323 194.683 251.986 194.715 251.686 194.715C249.408 194.715 248.27 193.515 248.27 191.116V184.112H246.583V183.253L248.27 182.512L249.021 179.998H250.053V182.727H253.469V184.112H250.053V191.041C250.053 191.75 250.221 192.294 250.558 192.674C250.894 193.053 251.356 193.243 251.943 193.243ZM262.401 194.5V178.795H264.228V194.5H262.401ZM272.33 193.243C272.645 193.243 272.95 193.222 273.243 193.179C273.537 193.129 273.77 193.078 273.941 193.028V194.393C273.748 194.486 273.462 194.561 273.082 194.618C272.71 194.683 272.373 194.715 272.072 194.715C269.795 194.715 268.656 193.515 268.656 191.116V184.112H266.97V183.253L268.656 182.512L269.408 179.998H270.439V182.727H273.855V184.112H270.439V191.041C270.439 191.75 270.608 192.294 270.944 192.674C271.281 193.053 271.743 193.243 272.33 193.243ZM281.528 194.715C279.788 194.715 278.413 194.185 277.403 193.125C276.401 192.065 275.899 190.593 275.899 188.71C275.899 186.812 276.365 185.305 277.296 184.188C278.234 183.07 279.491 182.512 281.066 182.512C282.542 182.512 283.709 182.999 284.568 183.973C285.428 184.939 285.857 186.218 285.857 187.808V188.936H277.747C277.783 190.318 278.13 191.367 278.789 192.083C279.455 192.799 280.39 193.157 281.593 193.157C282.86 193.157 284.114 192.892 285.353 192.362V193.952C284.722 194.224 284.124 194.418 283.559 194.532C283 194.654 282.323 194.715 281.528 194.715ZM281.045 184.005C280.1 184.005 279.344 184.313 278.778 184.929C278.22 185.545 277.89 186.397 277.79 187.485H283.945C283.945 186.361 283.695 185.502 283.193 184.907C282.692 184.306 281.976 184.005 281.045 184.005ZM304.165 194.5V186.841C304.165 185.903 303.965 185.201 303.563 184.735C303.162 184.263 302.539 184.026 301.694 184.026C300.584 184.026 299.764 184.345 299.234 184.982C298.704 185.62 298.439 186.601 298.439 187.926V194.5H296.656V186.841C296.656 185.903 296.456 185.201 296.055 184.735C295.654 184.263 295.027 184.026 294.175 184.026C293.058 184.026 292.238 184.363 291.715 185.036C291.199 185.702 290.941 186.798 290.941 188.323V194.5H289.158V182.727H290.608L290.898 184.338H290.984C291.321 183.765 291.794 183.317 292.402 182.995C293.018 182.673 293.706 182.512 294.465 182.512C296.305 182.512 297.508 183.178 298.074 184.51H298.16C298.511 183.894 299.02 183.407 299.686 183.049C300.352 182.691 301.111 182.512 301.963 182.512C303.295 182.512 304.29 182.855 304.949 183.543C305.615 184.223 305.948 185.315 305.948 186.819V194.5H304.165Z" fill="#252A2E"/><rect x="799" y="169.5" width="64" height="32" rx="16" fill="#FFCD10" stroke="#BEB8B8" stroke-width="2"/><path d="M859.5 185.5C859.5 192.404 853.904 198 847 198C840.096 198 834.5 192.404 834.5 185.5C834.5 178.596 840.096 173 847 173C853.904 173 859.5 178.596 859.5 185.5Z" fill="#fff" stroke="#BEB8B8"/></svg>
